X:235
T:Mrs. Parker's
R:Waltz
O:England
M:3/4
A:Lancashire
B:Winder
K:G
D2| G2 GA BG | c2 cB Ac | B2 BA GB | AG FE FD |\
G2 GA BG | c2 cB AG | FE DE FD |1 G4 D2:|2 G4 Bc ||
|: d2 dc Bd | c2 cB Ac | B2 BA GB | AG FE D2 |\
d2 Bc de | c2 AB cd | BA GB AF |1 G4 Bc:|2 G4 D2 ||
